X: 277
T:King George V's Army
C:G.S. MacLennan
G:march
M:2/4
L:1/16
Q:1/4=80
K:Hp
ed|c2A2 A3B |cAce fedc|d2B2 B3c |defa f2ed|
   c2A2 A3B |cAce fedc|d2fd c2ec|B4   A2 :|
cd|e2a2 a2gf|e2c2 c2ec|d2B2 B2cd|c2A2 A2cd|
   e2a2 a2gf|e2c2 c2ec|d2fd c2ec|B4   A2 :|
ed|c2e2 a3e |ceae faec|d2f2 a3f |dfad fafd|
   c2e2 a3e |ceae faec|dfad ceac|B4   A2 :|
ed|c2e2 e3d |ceea fedc|d2f2 f3e |dffa gfed|
   c2e2 e3d |ceea fedc|dfad ceac|B4   A2 :|

Each part of this complex tune is hexatonic until the unobtrusive B in
the final bar puts it into the major:

